public/train-bullets/d.svg

<?xml version="1.0" standalone="no"?>
<!DOCTYPE svg PUBLIC "-//W3C//DTD SVG 1.1//EN" "http://www.w3.org/Graphics/SVG/1.1/DTD/svg11.dtd">
<svg width="100%" height="100%" viewBox="0 0 90 90" version="1.1" xmlns="http://www.w3.org/2000/svg" xmlns:xlink="http://www.w3.org/1999/xlink" xml:space="preserve" style="fill-rule:evenodd;clip-rule:evenodd;stroke-linejoin:round;stroke-miterlimit:1.41421;">
    <g id="D">
        <circle cx="45" cy="45" r="45" style="fill:rgb(255,98,25);"/>
        <path d="M35.7389,29.3424L35.7389,60.6576L44.9837,60.6576C49.7146,60.6576 53.0132,58.3247 54.8796,53.6589C55.8995,51.0981 56.4095,48.049 56.4095,44.5117C56.4095,39.6289 55.6445,35.88 54.1146,33.265C52.5846,30.65 49.541,29.3424 44.9837,29.3424L35.7389,29.3424ZM54.0983,22.0508C57.462,23.1576 60.1855,25.1866 62.2689,28.138C63.9399,30.5252 65.0792,33.1076 65.6868,35.8854C66.2945,38.6632 66.5983,41.3108 66.5983,43.8281C66.5983,50.2083 65.3179,55.612 62.7572,60.0391C59.2849,66.0069 53.9247,68.9909 46.6764,68.9909L26.0059,68.9909L26.0059,21.0091L46.6764,21.0091C49.6495,21.0525 52.1235,21.3997 54.0983,22.0508Z" style="fill:white;fill-rule:nonzero;"/>
    </g>
</svg>

<svg xmlns="http://www.w3.org/2000/svg" xml:space="preserve" style="fill-rule:evenodd;clip-rule:evenodd;stroke-linejoin:round;stroke-miterlimit:1.41421" viewBox="0 0 90 90"><circle cx="45" cy="45" r="45" style="fill:#ff6219"/><path d="M35.739 29.342v31.316h9.245q7.096 0 9.896-7 1.53-3.84 1.53-9.146 0-7.324-2.295-11.247t-9.131-3.923zm18.36-7.291q5.045 1.66 8.17 6.087 2.506 3.581 3.418 7.747t.911 7.943q0 9.57-3.84 16.211-5.209 8.952-16.082 8.952h-20.67V21.009h20.67q4.46.064 7.422 1.042" style="fill:#fff;fill-rule:nonzero"/></svg>
